X: 0992
M: 2/4
L: 1/16
K: F
c3A |\
|: c2 |\
fa3  gf3 | df3 cA3 | ~c4 b2a2 | g4 c'3b |\
ac'3 af3 | df3 cA3 | ~c4 d2e2 | f4 :|

